packages/dnb-ui-lib/assets/icons/pension_medium.svg

<svg width="24" height="24" viewBox="0 0 24 24" fill="none" xmlns="http://www.w3.org/2000/svg">
<path d="M9.75 17.9999C9.75 20.4852 7.73528 22.4999 5.25 22.4999C2.76472 22.4999 0.75 20.4852 0.75 17.9999C0.75 15.5146 2.76472 13.4999 5.25 13.4999C7.73528 13.4999 9.75 15.5146 9.75 17.9999ZM9.75 17.9999V11.9999M0.911 16.8049L4.594 3.42493C4.76259 2.81201 5.14786 2.28109 5.67828 1.93075C6.20871 1.58041 6.84824 1.43444 7.47814 1.51996C8.10805 1.60548 8.68552 1.91667 9.10333 2.39575C9.52115 2.87483 9.75093 3.48925 9.75 4.12493V8.99993M14.25 17.9999C14.25 20.4852 16.2647 22.4999 18.75 22.4999C21.2353 22.4999 23.25 20.4852 23.25 17.9999C23.25 15.5146 21.2353 13.4999 18.75 13.4999C16.2647 13.4999 14.25 15.5146 14.25 17.9999ZM14.25 17.9999V11.9999M23.089 16.8019L19.406 3.42493C19.2374 2.81201 18.8521 2.28109 18.3217 1.93075C17.7913 1.58041 17.1518 1.43444 16.5219 1.51996C15.892 1.60548 15.3145 1.91667 14.8967 2.39575C14.4788 2.87483 14.2491 3.48925 14.25 4.12493V8.99993M9.75 8.99993V11.9999M9.75 8.99993H14.25M9.75 11.9999H14.25M14.25 11.9999V8.99993" stroke="black" stroke-width="1.5" stroke-linecap="round" stroke-linejoin="round"/>
</svg>

<svg width="24" height="24" viewBox="0 0 24 24" fill="none" xmlns="http://www.w3.org/2000/svg"><path d="M9.75 18a4.5 4.5 0 11-9 0 4.5 4.5 0 019 0zm0 0v-6M.911 16.805l3.683-13.38a2.625 2.625 0 015.156.7V9m4.5 9a4.5 4.5 0 109 0 4.5 4.5 0 00-9 0zm0 0v-6m8.839 4.802L19.406 3.425a2.625 2.625 0 00-5.156.7V9m-4.5 0v3m0-3h4.5m-4.5 3h4.5m0 0V9" stroke="#000" stroke-width="1.5" stroke-linecap="round" stroke-linejoin="round"/></svg>
